X: 1
T:Spit-Fire -- Reel
M:2/4
L:1/16
R:reel
B:Ryan's Mammoth Collection
N:174
Z:Contributed by Ray Davies,  ray:davies99.freeserve.co.uk
K:Bb
ukf2|\
kb2.f.e (dc).B.d | (cB).A.c .B2.B.G | (FG).A.B (cd).e.c |\
(dc).B.d .c2kf2 |
kb2.f.e (dc).B.d | (cB).A.c .B2.B.G | (FG).A.B (cd).e.c |\
(dB).c.A .B2  ::
u(fg)|\
.f.d(Bd) .f.d(gd) | .f.d(Bd) .f.d(bd) | .f.d(Bd) .f.d(gd) |\
edcd .e2(fg) |
.f.d(Bd) .f.d(gd) | .f.d(Bd) .f.d(bd) | bagf edcB |\
ABcd e2 "_D.C." :|
